X: 12830
T: Felix The Wrestler
R: jig
M: 6/8
K: Amixolydian
|:a|c2A AcA|ecA ABc|B2G GBG|dBG Bcd|
c2A AcA|ecA ABc|dcd Bcd|ecA A2:|
|:e|c2a aga|efe edc|B2g gfg|ded dcB|
c2a aga|efe edc|dcd Bcd|ecA A2:|
|:a|c2A ABA|AcA ecA|B2G GAG|GBG dBG|
[1 c2A ABA|AcA ecA|dcd Bcd|ecA A2:|
[2 c2B cA/A/A|AcA ecA|dcd Bcd|ecA A2||
e|cAc aAc|fAc eAc|BGB gGB|eGB dGB|
cAc aAc|fAc eAc|dcd Bcd|ecA A2 e|
cAc cac|cfc cec|BGB BgB|BeB BdB|
cAc aec|fdB ecA|dcd Bcd|ecA A2||

